!!!OTL: 110a. Ritter und Magd. / [Jm Ton: Es lag ein Schlößel in Oſterreich. (Alte Mel.)]
!!!ARE: Europa, Mitteleuropa, Deutschland
!!!SCT: E0110
!!!TXL: @@DE
!!!YEM: Copyright 1995, estate of Helmut Schaffrath.
**kern	**text
*ICvox	*
*M4/4	*
*met(c)	*
*k[b-e-]	*
*g:	*
!LO:TX:a:t=Nicolai's Alm. 11777. Nr. 2.	!
{4dd	Es
=1	=1
4dd	ſpielt
4cc	ein
4dd	Graf
4ee-	mit
=2	=2
4ff	ei-
4gg	-ner
4.dd}	Magd,
{8ff	ſie
=3	=3
4ee-	ſpiel-
4dd	-ten
4cc	al-
4b-	-le
=4	=4
2cc	bei-
4.dd}	-de,
{8cc	ſie
=5	=5
4cc	ſpiel-
4cc	-ten_die
4dd	lie-
4cc	-be
=6	=6
4b-/	lan-
4a	-ge
4g}	Nacht
{4a	bis
=7	=7
4b-	an
4cc	den
4dd	hel-
4b-	-len
=8	=8
2a	Mor-
4g}	-gen.
==	==
!!!AGN: erzaehlendes Volks - Lied, Sage, Liebe, Leid, Tod, Ballade ?
!!!ONB: ESAC (Essen Associative Code) Database: ERK1
!!!AMT: simple quadruple
!!!AIN: vox
!!!EED: Helmut Schaffrath
!!!EEV: 1.0
!!!GTL: Liebesgeschichten mit tragischem Schluss
!!!URL-scan: https://rosdok.uni-rostock.de/mcrviewer/recordIdentifier/rosdok_ppn745146120/iview2/phys_0459.iview2?x=-422.27491384562836&y=-54.37660661386326&scale=0.554360769283424&rotation=0&layout=singlePageLayout
!!!ENC: Anna Maria Matuszewska
!!!EEV: 2024/02/12
*-	*-
